X:47
T:Mr. Joie de Vivre
R:reel
C:Paul S. Cranford
O:Cape Breton Island
S:http://www.cranfordpub.com
D:currently unrecorded
B:currently unpublished in book form
Z:psc
H:                                                        copyrights Cranford Publications, SOCAN
L:1/8
Q:333
M:C|
K:D
c|dA A/A/A dAec|dAAF A2 de|fa ~a2 bfaf|eBBA Bgfe|
dA A/A/A dAec|dAAF A2 de|fa ~a2 ebaf edBc d2 d:|
|:B|ADFA ~F3 A|dgfe dBBg|fa ~a2 bfaf|gefd edBe|
dDFA ~F3 A|dgfe dBBd|fa ~a2 ebaf edBc d2 d:|
